!!!OTL: AUF DEM BERGE WACHSEN REBEN
!!!ARE: Europa, Mitteleuropa, Deutschland; France, Elsass, Weissenburg
!!!SCT: E0793
!!!YEM: Copyright 1995, estate of Helmut Schaffrath.
**kern
*ICvox
*Ivox
*M2/4
*k[b-e-]
*B-:
{8B-
8d
=1
8.f
16f
8f
8f
=2
8.f
16f}
{8g
8a
=3
8.cc
16b-
8b-
8d
=4
8f
8f}
{8g
8d
=5
8.f
16e-
8e-
8e-
=6
8.e-
16e-}
{8f
8f
=7
8.a
16g
8f
8e-
=8
4d}
{8.d
16e-
=9
4f
8.d
16e-
=10
4f
8f
8f
=11
4.dd
8cc
=12
4b-}
{8b-
8dd
=13
4cc
8ee-
8cc
=14
8a
8a
8g
8a
=15
4b-}
{8.d
16e-
=16
4f
8.d
16e-
=17
4f
8f
8f
=18
4.dd
8cc
=19
4b-}
{8b-
8dd
=20
4cc
8ee-
8cc
=21
8a
8a
8g
8a
=22
4b-}
==
!!!AGN: Abschieds - Lied, Freundschaft
!!!ONB: ESAC (Essen Associative Code) Database: ERK2
!!!AMT: simple duple
!!!AIN: vox
!!!EED: Helmut Schaffrath
!!!EEV: 1.0
*-
